X:3022
T:Cuckoo's Nest
R:March
C:Trad. Morris
O:England; Sherborne
Z:Paul Hardy's Session Tunebook 2022 (see www.paulhardy.net). Creative Commons cc by-nc-sa licenced.
M:2/2
L:1/8
Q:1/2=80
K:Ador
"Am"cdcB A2a2|"Em"e2e2 d2e2|"G"BdBA G2AB|"Am"c2"G"d2 "Am"A4:|
|:"Am"a2a2 a2ba|"E"^g2e2 e3f|"G"g2g2 g2ag|"D"f2d2 d4|
"Am"cdcB A2a2|"Em"e2e2 d2e2|"G"BdBA G2AB|"Am"c2"G"d2 "Am"A4:|
T:Cuckoo's Nest (E Dorian)
K:Edor
|:"Em"GAGF E2e2|B2B2 A2B2|"D" FAFE D2EF|"B7"G2A2 "Em"E4:|
|:"Em"e2e2 e2fe|"B7"^d2B2 B3c|"D"d2d2 d2ed|"A"c2A2 A4|
"Em"GAGF E2e2|B2B2 A2B2|"D"FAFE D2EF|"B7"G2A2 "Em"E4:|

